packages/admin/admin-icons/icons/link-external.svg

<svg xmlns="http://www.w3.org/2000/svg" width="16" height="16" viewBox="0 0 16 16"><path fill="#242424" fill-rule="evenodd" d="M6.87662089,2.20059485 L6.93933983,2.19669914 L13.3033009,2.19669914 C13.3411377,2.19669914 13.3779929,2.2009019 13.4134251,2.20886607 L13.4979234,2.23599162 L13.4979234,2.23599162 L13.5573461,2.26595243 L13.5573461,2.26595243 L13.602079,2.29570428 L13.602079,2.29570428 L13.678003,2.36563393 L13.7273278,2.43153566 L13.7273278,2.43153566 L13.76109,2.49529987 L13.76109,2.49529987 L13.7841272,2.55909524 L13.7841272,2.55909524 L13.80265,2.6711159 L13.80265,2.6711159 L13.8033009,9.06066017 C13.8033009,9.33680255 13.5794432,9.56066017 13.3033009,9.56066017 C13.0484002,9.56066017 12.8380499,9.36991758 12.8071966,9.12337911 L12.8033009,9.06066017 L12.8019622,3.90514463 L3.05025253,13.6568542 C2.85499039,13.8521164 2.5384079,13.8521164 2.34314575,13.6568542 C2.1478836,13.4615921 2.1478836,13.1450096 2.34314575,12.9497475 L12.0962696,3.19662364 L6.93933983,3.19669914 C6.68443917,3.19669914 6.47408884,3.00595655 6.44323554,2.75941808 L6.43933983,2.69669914 C6.43933983,2.44179849 6.63008242,2.23144815 6.87662089,2.20059485 Z"/></svg>

<svg width="16" height="16" fill="none" viewBox="0 0 16 16">
  <path fill="#242424" fill-rule="evenodd" d="m6.877 2.2.063-.003h6.364c.038 0 .075.004.11.012l.085.027.059.03.045.03.076.07.049.066.034.063.023.064.018.112v6.39a.5.5 0 0 1-.995.062l-.004-.062-.002-5.156-9.751 9.752a.5.5 0 1 1-.707-.707l9.753-9.753H6.94a.5.5 0 0 1-.496-.438l-.004-.062a.5.5 0 0 1 .437-.496Z" clip-rule="evenodd"/>
</svg>
